T: March Of The Crows, The
M: 4/4
L: 1/8
K: Amin
(cB)|:"Ami"ABcdc2(cB)|ABcdc2(cB)|"G"ABAG "Emi"E2(cB)|"G"ABAG "Emi"E2(cB)|
"Ami"ABcdc2(cB)|ABcdc2(cB)|"G"cABc "Em"dcAG|1"G"EGGE "Dsus"D4:|[2"G"EGGE "Dsus"D4||
"Ami"AccA AccA|AccA "G" B4|"Ami"AccA AccA|Aece"Emi"d4|
"Ami"AccA AccA|AccA "G"B4|"Ami"AccA AccA|Aece"Emi"d4 ||
